markup/sourceimages/icon4.svg

<svg xmlns="http://www.w3.org/2000/svg" width="186" height="112"><path fill-rule="evenodd" fill="#EDEDED" d="M183.292 77.514c-4.575 0-6.716 1.981-9.427 4.49-3.001 2.777-6.403 5.926-13.083 5.926-6.678 0-10.079-3.149-13.081-5.926-2.71-2.509-4.851-4.49-9.425-4.49-4.575 0-6.715 1.981-9.426 4.489-3.001 2.778-6.402 5.927-13.081 5.927-6.679 0-10.08-3.149-13.081-5.927-2.71-2.508-4.851-4.489-9.425-4.489-4.574 0-6.715 1.981-9.425 4.489-3 2.778-6.402 5.927-13.081 5.927-6.678 0-10.078-3.149-13.079-5.927-2.71-2.508-4.85-4.489-9.424-4.489s-6.714 1.981-9.424 4.489c-3.001 2.778-6.403 5.927-13.081 5.927-6.679 0-10.081-3.149-13.082-5.927-2.71-2.508-4.851-4.489-9.425-4.489-1.495 0-2.707-1.226-2.707-2.738s1.212-2.738 2.707-2.738c6.679 0 10.08 3.148 13.082 5.926 2.71 2.508 4.85 4.49 9.425 4.49 4.574 0 6.714-1.982 9.424-4.49 3.001-2.778 6.403-5.926 13.081-5.926s10.079 3.148 13.08 5.926c2.71 2.508 4.85 4.49 9.423 4.49 4.575 0 6.715-1.982 9.425-4.49 3.001-2.778 6.402-5.926 13.081-5.926 6.679 0 10.08 3.148 13.081 5.926 2.71 2.508 4.851 4.49 9.425 4.49 4.575 0 6.715-1.982 9.425-4.49 3.001-2.778 6.403-5.926 13.082-5.926 6.679 0 10.08 3.148 13.082 5.926 2.71 2.508 4.85 4.49 9.425 4.49 4.575 0 6.716-1.982 9.427-4.49 3.001-2.778 6.403-5.926 13.082-5.926 1.495 0 2.708 1.226 2.708 2.738s-1.213 2.738-2.708 2.738zm0-23.729c-4.575 0-6.716 1.981-9.427 4.49-3.001 2.778-6.403 5.926-13.083 5.926-6.678 0-10.079-3.148-13.081-5.926-2.71-2.509-4.851-4.49-9.425-4.49-4.575 0-6.715 1.981-9.426 4.489-3.001 2.779-6.402 5.927-13.081 5.927-6.679 0-10.08-3.148-13.081-5.927-2.71-2.508-4.851-4.489-9.425-4.489-4.574 0-6.715 1.981-9.425 4.489-3 2.779-6.402 5.927-13.081 5.927-6.678 0-10.078-3.148-13.079-5.927-2.71-2.508-4.85-4.489-9.424-4.489s-6.714 1.981-9.424 4.489c-3.001 2.779-6.403 5.927-13.081 5.927-6.679 0-10.081-3.148-13.082-5.927-2.71-2.508-4.851-4.489-9.425-4.489-1.495 0-2.707-1.226-2.707-2.738s1.212-2.738 2.707-2.738c6.679 0 10.08 3.148 13.082 5.926 2.71 2.508 4.85 4.49 9.425 4.49 4.574 0 6.714-1.982 9.424-4.49 3.001-2.778 6.403-5.926 13.081-5.926s10.079 3.148 13.08 5.926c2.71 2.508 4.85 4.49 9.423 4.49 4.575 0 6.715-1.982 9.425-4.49 3.001-2.778 6.402-5.926 13.081-5.926 6.679 0 10.08 3.148 13.081 5.926 2.71 2.508 4.851 4.49 9.425 4.49 4.575 0 6.715-1.982 9.425-4.49 3.001-2.778 6.403-5.926 13.082-5.926 6.679 0 10.08 3.148 13.082 5.926 2.71 2.508 4.85 4.49 9.425 4.49 4.575 0 6.716-1.982 9.427-4.49 3.001-2.778 6.403-5.926 13.082-5.926 1.495 0 2.708 1.226 2.708 2.738s-1.213 2.738-2.708 2.738zm0-23.729c-4.575 0-6.716 1.981-9.427 4.49-3.001 2.777-6.403 5.926-13.083 5.926-6.678 0-10.079-3.149-13.081-5.926-2.71-2.509-4.851-4.49-9.425-4.49-4.575 0-6.715 1.981-9.426 4.49-3.001 2.777-6.402 5.926-13.081 5.926-6.679 0-10.08-3.149-13.081-5.926-2.71-2.509-4.851-4.49-9.425-4.49-4.574 0-6.715 1.981-9.425 4.49-3 2.777-6.402 5.926-13.081 5.926-6.678 0-10.078-3.149-13.079-5.926-2.71-2.509-4.85-4.49-9.424-4.49s-6.714 1.981-9.424 4.49c-3.001 2.777-6.403 5.926-13.081 5.926-6.679 0-10.081-3.149-13.082-5.926-2.71-2.509-4.85-4.49-9.425-4.49-1.495 0-2.707-1.226-2.707-2.738s1.212-2.738 2.707-2.738c6.679 0 10.08 3.148 13.082 5.925 2.71 2.509 4.85 4.49 9.425 4.49 4.574 0 6.714-1.981 9.424-4.489 3.001-2.778 6.403-5.926 13.081-5.926s10.079 3.148 13.08 5.926c2.71 2.509 4.85 4.489 9.423 4.489 4.575 0 6.715-1.981 9.425-4.489 3.001-2.778 6.402-5.926 13.081-5.926 6.679 0 10.08 3.148 13.081 5.926 2.71 2.508 4.851 4.489 9.425 4.489 4.575 0 6.715-1.981 9.425-4.489 3.001-2.778 6.403-5.926 13.082-5.926 6.679 0 10.08 3.148 13.082 5.926 2.71 2.508 4.85 4.489 9.425 4.489 4.575 0 6.716-1.981 9.427-4.49 3.001-2.777 6.403-5.925 13.082-5.925 1.495 0 2.708 1.226 2.708 2.738s-1.213 2.738-2.708 2.738zm0-23.729c-4.575 0-6.716 1.981-9.427 4.49-3.001 2.777-6.403 5.926-13.083 5.926-6.678 0-10.079-3.149-13.081-5.926-2.71-2.509-4.851-4.49-9.425-4.49-4.575 0-6.715 1.981-9.426 4.49-3.001 2.777-6.402 5.926-13.081 5.926-6.679 0-10.08-3.149-13.081-5.926-2.71-2.509-4.851-4.49-9.425-4.49-4.574 0-6.715 1.981-9.425 4.49-3 2.777-6.402 5.926-13.081 5.926-6.678 0-10.078-3.149-13.079-5.926-2.71-2.509-4.85-4.49-9.424-4.49s-6.714 1.981-9.424 4.49c-3.001 2.777-6.403 5.926-13.081 5.926-6.679 0-10.081-3.149-13.082-5.926-2.71-2.509-4.85-4.49-9.425-4.49-1.495 0-2.707-1.226-2.707-2.738S1.747.851 3.242.851c6.679 0 10.08 3.148 13.082 5.926 2.71 2.508 4.85 4.489 9.425 4.489 4.574 0 6.714-1.981 9.424-4.489C38.174 3.999 41.576.851 48.254.851S58.333 4 61.334 6.777c2.71 2.509 4.85 4.489 9.423 4.489 4.575 0 6.715-1.981 9.425-4.489C83.183 3.999 86.584.851 93.263.851c6.679 0 10.08 3.148 13.081 5.926 2.71 2.508 4.851 4.489 9.425 4.489 4.575 0 6.715-1.981 9.425-4.489 3.001-2.778 6.403-5.926 13.082-5.926 6.679 0 10.08 3.148 13.082 5.926 2.71 2.508 4.85 4.489 9.425 4.489 4.575 0 6.716-1.981 9.427-4.489 3.001-2.778 6.403-5.926 13.082-5.926 1.495 0 2.708 1.226 2.708 2.738s-1.213 2.738-2.708 2.738zM3.242 95.767c6.679 0 10.08 3.148 13.082 5.926 2.71 2.508 4.85 4.49 9.425 4.49 4.574 0 6.714-1.982 9.424-4.49 3.001-2.778 6.403-5.926 13.081-5.926s10.079 3.148 13.08 5.926c2.71 2.508 4.85 4.49 9.423 4.49 4.575 0 6.715-1.982 9.425-4.49 3.001-2.778 6.402-5.926 13.081-5.926 6.679 0 10.08 3.148 13.081 5.926 2.71 2.508 4.851 4.49 9.425 4.49 4.575 0 6.715-1.982 9.425-4.49 3.001-2.778 6.403-5.926 13.082-5.926 6.679 0 10.08 3.148 13.082 5.926 2.71 2.508 4.85 4.49 9.425 4.49 4.575 0 6.716-1.982 9.427-4.49 3.001-2.778 6.403-5.926 13.082-5.926 1.495 0 2.708 1.225 2.708 2.738 0 1.512-1.213 2.738-2.708 2.738-4.575 0-6.716 1.981-9.427 4.49-3.001 2.777-6.403 5.926-13.083 5.926-6.678 0-10.079-3.149-13.081-5.926-2.71-2.509-4.851-4.49-9.425-4.49-4.575 0-6.715 1.981-9.426 4.489-3.001 2.778-6.402 5.927-13.081 5.927-6.679 0-10.08-3.149-13.081-5.927-2.71-2.508-4.851-4.489-9.425-4.489-4.574 0-6.715 1.981-9.425 4.489-3 2.778-6.402 5.927-13.081 5.927-6.678 0-10.078-3.149-13.079-5.927-2.71-2.508-4.85-4.489-9.424-4.489s-6.714 1.981-9.424 4.489c-3.001 2.778-6.403 5.927-13.081 5.927-6.679 0-10.081-3.149-13.082-5.927-2.71-2.508-4.851-4.489-9.425-4.489-1.495 0-2.707-1.226-2.707-2.738 0-1.513 1.212-2.738 2.707-2.738z"/></svg>

<svg 
 xmlns="http://www.w3.org/2000/svg"
 xmlns:xlink="http://www.w3.org/1999/xlink"
 width="186px" height="112px">
<path fill-rule="evenodd"  fill="rgb(237, 237, 237)"
 d="M183.292,77.514 C178.717,77.514 176.576,79.495 173.865,82.004 C170.864,84.781 167.462,87.930 160.782,87.930 C154.104,87.930 150.703,84.781 147.701,82.004 C144.991,79.495 142.850,77.514 138.276,77.514 C133.701,77.514 131.561,79.495 128.850,82.003 C125.849,84.781 122.448,87.930 115.769,87.930 C109.090,87.930 105.689,84.781 102.688,82.003 C99.978,79.495 97.837,77.514 93.263,77.514 C88.689,77.514 86.548,79.495 83.838,82.003 C80.838,84.781 77.436,87.930 70.757,87.930 C64.079,87.930 60.679,84.781 57.678,82.003 C54.968,79.495 52.828,77.514 48.254,77.514 C43.680,77.514 41.540,79.495 38.830,82.003 C35.829,84.781 32.427,87.930 25.749,87.930 C19.070,87.930 15.668,84.781 12.667,82.003 C9.957,79.495 7.816,77.514 3.242,77.514 C1.747,77.514 0.535,76.288 0.535,74.776 C0.535,73.264 1.747,72.038 3.242,72.038 C9.921,72.038 13.322,75.186 16.324,77.964 C19.034,80.472 21.174,82.454 25.749,82.454 C30.323,82.454 32.463,80.472 35.173,77.964 C38.174,75.186 41.576,72.038 48.254,72.038 C54.932,72.038 58.333,75.186 61.334,77.964 C64.044,80.472 66.184,82.454 70.757,82.454 C75.332,82.454 77.472,80.472 80.182,77.964 C83.183,75.186 86.584,72.038 93.263,72.038 C99.942,72.038 103.343,75.186 106.344,77.964 C109.054,80.472 111.195,82.454 115.769,82.454 C120.344,82.454 122.484,80.472 125.194,77.964 C128.195,75.186 131.597,72.038 138.276,72.038 C144.955,72.038 148.356,75.186 151.358,77.964 C154.068,80.472 156.208,82.454 160.783,82.454 C165.358,82.454 167.499,80.472 170.210,77.964 C173.211,75.186 176.613,72.038 183.292,72.038 C184.787,72.038 186.000,73.264 186.000,74.776 C186.000,76.288 184.787,77.514 183.292,77.514 ZM183.292,53.785 C178.717,53.785 176.576,55.766 173.865,58.275 C170.864,61.053 167.462,64.201 160.782,64.201 C154.104,64.201 150.703,61.053 147.701,58.275 C144.991,55.766 142.850,53.785 138.276,53.785 C133.701,53.785 131.561,55.766 128.850,58.274 C125.849,61.053 122.448,64.201 115.769,64.201 C109.090,64.201 105.689,61.053 102.688,58.274 C99.978,55.766 97.837,53.785 93.263,53.785 C88.689,53.785 86.548,55.766 83.838,58.274 C80.838,61.053 77.436,64.201 70.757,64.201 C64.079,64.201 60.679,61.053 57.678,58.274 C54.968,55.766 52.828,53.785 48.254,53.785 C43.680,53.785 41.540,55.766 38.830,58.274 C35.829,61.053 32.427,64.201 25.749,64.201 C19.070,64.201 15.668,61.053 12.667,58.274 C9.957,55.766 7.816,53.785 3.242,53.785 C1.747,53.785 0.535,52.559 0.535,51.047 C0.535,49.535 1.747,48.309 3.242,48.309 C9.921,48.309 13.322,51.457 16.324,54.235 C19.034,56.743 21.174,58.725 25.749,58.725 C30.323,58.725 32.463,56.743 35.173,54.235 C38.174,51.457 41.576,48.309 48.254,48.309 C54.932,48.309 58.333,51.457 61.334,54.235 C64.044,56.743 66.184,58.725 70.757,58.725 C75.332,58.725 77.472,56.743 80.182,54.235 C83.183,51.457 86.584,48.309 93.263,48.309 C99.942,48.309 103.343,51.457 106.344,54.235 C109.054,56.743 111.195,58.725 115.769,58.725 C120.344,58.725 122.484,56.743 125.194,54.235 C128.195,51.457 131.597,48.309 138.276,48.309 C144.955,48.309 148.356,51.457 151.358,54.235 C154.068,56.743 156.208,58.725 160.783,58.725 C165.358,58.725 167.499,56.743 170.210,54.235 C173.211,51.457 176.613,48.309 183.292,48.309 C184.787,48.309 186.000,49.535 186.000,51.047 C186.000,52.559 184.787,53.785 183.292,53.785 ZM183.292,30.056 C178.717,30.056 176.576,32.037 173.865,34.546 C170.864,37.323 167.462,40.472 160.782,40.472 C154.104,40.472 150.703,37.323 147.701,34.546 C144.991,32.037 142.850,30.056 138.276,30.056 C133.701,30.056 131.561,32.037 128.850,34.546 C125.849,37.323 122.448,40.472 115.769,40.472 C109.090,40.472 105.689,37.323 102.688,34.546 C99.978,32.037 97.837,30.056 93.263,30.056 C88.689,30.056 86.548,32.037 83.838,34.546 C80.838,37.323 77.436,40.472 70.757,40.472 C64.079,40.472 60.679,37.323 57.678,34.546 C54.968,32.037 52.828,30.056 48.254,30.056 C43.680,30.056 41.540,32.037 38.830,34.546 C35.829,37.323 32.427,40.472 25.749,40.472 C19.070,40.472 15.668,37.323 12.667,34.546 C9.957,32.037 7.817,30.056 3.242,30.056 C1.747,30.056 0.535,28.830 0.535,27.318 C0.535,25.806 1.747,24.580 3.242,24.580 C9.921,24.580 13.322,27.728 16.324,30.505 C19.034,33.014 21.174,34.995 25.749,34.995 C30.323,34.995 32.463,33.014 35.173,30.506 C38.174,27.728 41.576,24.580 48.254,24.580 C54.932,24.580 58.333,27.728 61.334,30.506 C64.044,33.015 66.184,34.995 70.757,34.995 C75.332,34.995 77.472,33.014 80.182,30.506 C83.183,27.728 86.584,24.580 93.263,24.580 C99.942,24.580 103.343,27.728 106.344,30.506 C109.054,33.014 111.195,34.995 115.769,34.995 C120.344,34.995 122.484,33.014 125.194,30.506 C128.195,27.728 131.597,24.580 138.276,24.580 C144.955,24.580 148.356,27.728 151.358,30.506 C154.068,33.014 156.208,34.995 160.783,34.995 C165.358,34.995 167.499,33.014 170.210,30.505 C173.211,27.728 176.613,24.580 183.292,24.580 C184.787,24.580 186.000,25.806 186.000,27.318 C186.000,28.830 184.787,30.056 183.292,30.056 ZM183.292,6.327 C178.717,6.327 176.576,8.308 173.865,10.817 C170.864,13.594 167.462,16.743 160.782,16.743 C154.104,16.743 150.703,13.594 147.701,10.817 C144.991,8.308 142.850,6.327 138.276,6.327 C133.701,6.327 131.561,8.308 128.850,10.817 C125.849,13.594 122.448,16.743 115.769,16.743 C109.090,16.743 105.689,13.594 102.688,10.817 C99.978,8.308 97.837,6.327 93.263,6.327 C88.689,6.327 86.548,8.308 83.838,10.817 C80.838,13.594 77.436,16.743 70.757,16.743 C64.079,16.743 60.679,13.594 57.678,10.817 C54.968,8.308 52.828,6.327 48.254,6.327 C43.680,6.327 41.540,8.308 38.830,10.817 C35.829,13.594 32.427,16.743 25.749,16.743 C19.070,16.743 15.668,13.594 12.667,10.817 C9.957,8.308 7.817,6.327 3.242,6.327 C1.747,6.327 0.535,5.101 0.535,3.589 C0.535,2.077 1.747,0.851 3.242,0.851 C9.921,0.851 13.322,3.999 16.324,6.777 C19.034,9.285 21.174,11.266 25.749,11.266 C30.323,11.266 32.463,9.285 35.173,6.777 C38.174,3.999 41.576,0.851 48.254,0.851 C54.932,0.851 58.333,4.000 61.334,6.777 C64.044,9.286 66.184,11.266 70.757,11.266 C75.332,11.266 77.472,9.285 80.182,6.777 C83.183,3.999 86.584,0.851 93.263,0.851 C99.942,0.851 103.343,3.999 106.344,6.777 C109.054,9.285 111.195,11.266 115.769,11.266 C120.344,11.266 122.484,9.285 125.194,6.777 C128.195,3.999 131.597,0.851 138.276,0.851 C144.955,0.851 148.356,3.999 151.358,6.777 C154.068,9.285 156.208,11.266 160.783,11.266 C165.358,11.266 167.499,9.285 170.210,6.777 C173.211,3.999 176.613,0.851 183.292,0.851 C184.787,0.851 186.000,2.077 186.000,3.589 C186.000,5.101 184.787,6.327 183.292,6.327 ZM3.242,95.767 C9.921,95.767 13.322,98.915 16.324,101.693 C19.034,104.201 21.174,106.183 25.749,106.183 C30.323,106.183 32.463,104.201 35.173,101.693 C38.174,98.915 41.576,95.767 48.254,95.767 C54.932,95.767 58.333,98.915 61.334,101.693 C64.044,104.201 66.184,106.183 70.757,106.183 C75.332,106.183 77.472,104.201 80.182,101.693 C83.183,98.915 86.584,95.767 93.263,95.767 C99.942,95.767 103.343,98.915 106.344,101.693 C109.054,104.201 111.195,106.183 115.769,106.183 C120.344,106.183 122.484,104.201 125.194,101.693 C128.195,98.915 131.597,95.767 138.276,95.767 C144.955,95.767 148.356,98.915 151.358,101.693 C154.068,104.201 156.208,106.183 160.783,106.183 C165.358,106.183 167.499,104.201 170.210,101.693 C173.211,98.915 176.613,95.767 183.292,95.767 C184.787,95.767 186.000,96.992 186.000,98.505 C186.000,100.017 184.787,101.243 183.292,101.243 C178.717,101.243 176.576,103.224 173.865,105.733 C170.864,108.510 167.462,111.659 160.782,111.659 C154.104,111.659 150.703,108.510 147.701,105.733 C144.991,103.224 142.850,101.243 138.276,101.243 C133.701,101.243 131.561,103.224 128.850,105.732 C125.849,108.510 122.448,111.659 115.769,111.659 C109.090,111.659 105.689,108.510 102.688,105.732 C99.978,103.224 97.837,101.243 93.263,101.243 C88.689,101.243 86.548,103.224 83.838,105.732 C80.838,108.510 77.436,111.659 70.757,111.659 C64.079,111.659 60.679,108.510 57.678,105.732 C54.968,103.224 52.828,101.243 48.254,101.243 C43.680,101.243 41.540,103.224 38.830,105.732 C35.829,108.510 32.427,111.659 25.749,111.659 C19.070,111.659 15.668,108.510 12.667,105.732 C9.957,103.224 7.816,101.243 3.242,101.243 C1.747,101.243 0.535,100.017 0.535,98.505 C0.535,96.992 1.747,95.767 3.242,95.767 Z"/>
</svg>
